X: 1
T: Lady Montgomerie [Bb]
C: Lord Eglintoune 1796
R: reel
B: RSCDS 10-1(b)
Z: 1997 by John Chambers <jc:trillian.mit.edu>
M: C|
L: 1/8
K: Bb
d "A"[|\
"Bb"B2BF DEFD | "(Gm)"B2BG "F7"ABcd | "Bb"B2BF "(Gm)"DEFD | "Cm"CccB "F7"ABcd ||\
"Bb"B2BF DEFD |
"Gm"B2BG "F7"ABcd | "Bb"BfdB FDFD | "Cm"CccB "F7"ABcd "B"|[|\
"Bb"B2fB dBf2 | "Bb"B2fB "(F7)"defb | "Bb"B2fB dBfB |
"Cm"edcB "F7"ABcd ||\
"Bb"B2fB dBfd | Bbfe "(F7)"defg | "(Gm)"fdec "Eb"dBcA |[1,3,4 "Cm"edcB "F7"ABcd :|
[2 "Cm"edcB "A7"A2 |]
%%text To 2nd tune ...
